SVG_Azure_All/Intune Tenant Status.svg

<?xml version="1.0" encoding="UTF-8" standalone="no"?>
<!-- Generated by Microsoft Visio, SVG Export Intune Tenant Status.svg Page-1 -->

<svg
   xmlns:dc="http://purl.org/dc/elements/1.1/"
   xmlns:cc="http://creativecommons.org/ns#"
   xmlns:rdf="http://www.w3.org/1999/02/22-rdf-syntax-ns#"
   xmlns:svg="http://www.w3.org/2000/svg"
   xmlns="http://www.w3.org/2000/svg"
   xmlns:sodipodi="http://sodipodi.sourceforge.net/DTD/sodipodi-0.dtd"
   xmlns:inkscape="http://www.inkscape.org/namespaces/inkscape"
   width="0.78777707in"
   height="0.78742713in"
   viewBox="0 0 56.719947 56.694894"
   xml:space="preserve"
   class="st7"
   version="1.1"
   id="svg49"
   sodipodi:docname="Intune Tenant Status.svg"
   style="font-size:12px;overflow:visible;color-interpolation-filters:sRGB;fill:none;fill-rule:evenodd;stroke-linecap:square;stroke-miterlimit:3"
   inkscape:version="0.92.5 (2060ec1f9f, 2020-04-08)"><metadata
   id="metadata53"><rdf:RDF><cc:Work
       rdf:about=""><dc:format>image/svg+xml</dc:format><dc:type
         rdf:resource="http://purl.org/dc/dcmitype/StillImage" /></cc:Work></rdf:RDF></metadata><sodipodi:namedview
   pagecolor="#ffffff"
   bordercolor="#666666"
   borderopacity="1"
   objecttolerance="10"
   gridtolerance="10"
   guidetolerance="10"
   inkscape:pageopacity="0"
   inkscape:pageshadow="2"
   inkscape:window-width="640"
   inkscape:window-height="480"
   id="namedview51"
   showgrid="false"
   inkscape:zoom="1.8365233"
   inkscape:cx="37.825037"
   inkscape:cy="18.900351"
   inkscape:window-x="0"
   inkscape:window-y="0"
   inkscape:window-maximized="0"
   inkscape:current-layer="svg49" />
	<style
   type="text/css"
   id="style2">
	<![CDATA[
		.st1 {fill:url(#grad0-5);stroke:none;stroke-linecap:butt;stroke-width:0.75}
		.st2 {fill:#ffffff;fill-opacity:0.8;stroke:none;stroke-linecap:butt;stroke-width:0.75}
		.st3 {fill:url(#grad0-11);stroke:none;stroke-linecap:butt;stroke-width:0.75}
		.st4 {fill:#b31b1b;stroke:none;stroke-linecap:butt;stroke-width:0.75}
		.st5 {fill:#f2f2f2}
		.st6 {stroke:none;stroke-linecap:butt;stroke-width:0.75}
		.st7 {fill:none;fill-rule:evenodd;font-size:12px;overflow:visible;stroke-linecap:square;stroke-miterlimit:3}
	]]>
	</style>

	<defs
   id="Patterns_And_Gradients">
		<linearGradient
   id="grad0-5"
   x1="-0.016915953"
   y1="89.28927"
   x2="38.261949"
   y2="89.28927"
   gradientTransform="scale(1.3235884,0.75552191)"
   gradientUnits="userSpaceOnUse">
			<stop
   offset="0.22"
   stop-color="#32d4f5"
   stop-opacity="1"
   id="stop4" />
			<stop
   offset="1"
   stop-color="#198ab3"
   stop-opacity="1"
   id="stop6" />
		</linearGradient>
		<linearGradient
   id="grad0-11"
   x1="0"
   y1="71.625969"
   x2="27.601384"
   y2="71.625969"
   gradientTransform="scale(1.0295643,0.97128462)"
   gradientUnits="userSpaceOnUse">
			<stop
   offset="0.22"
   stop-color="#32d4f5"
   stop-opacity="1"
   id="stop9" />
			<stop
   offset="1"
   stop-color="#198ab3"
   stop-opacity="1"
   id="stop11" />
		</linearGradient>
	</defs>
	<g
   id="g47"
   transform="translate(-5.6469875,-5.6694024)">
		<title
   id="title15">Page-1</title>
		<g
   id="group3980-1"
   transform="translate(5.66929,-34.0157)">
			<title
   id="title17">Intune Tenant Status</title>
			<g
   id="shape3981-2"
   transform="translate(0,-4.04472)">
				<title
   id="title19">Sheet.3981</title>
				<path
   d="m 46.06,96.38 a 4.5,4.24528 -180 0 0 4.57,-4.18 2.69291,2.54048 -180 0 0 0,-0.5 C 48.86,78.33 40.78,67.46 25.37,67.46 9.96,67.46 1.56,76.59 0,91.66 a 4.53543,4.27871 -180 0 0 4.04,4.68 h 42.02 z"
   class="st1"
   id="path21"
   inkscape:connector-curvature="0"
   style="fill:url(#grad0-5);stroke:none;stroke-width:0.75;stroke-linecap:butt" />
			</g>
			<g
   id="shape3982-6"
   transform="translate(17.7165,-13.2373)">
				<title
   id="title24">Sheet.3982</title>
				<path
   d="M 7.62,79.73 A 13.8898,13.1036 0 0 1 0,77.59 l 7.55,18.79 7.54,-18.65 a 14.1732,13.371 0 0 1 -7.47,2 z"
   class="st2"
   id="path26"
   inkscape:connector-curvature="0"
   style="fill:#ffffff;fill-opacity:0.8;stroke:none;stroke-width:0.75;stroke-linecap:butt" />
			</g>
			<g
   id="shape3983-8"
   transform="translate(11.126,-29.8841)">
				<title
   id="title29">Sheet.3983</title>
				<ellipse
   cx="14.2087"
   cy="82.973602"
   rx="14.2087"
   ry="13.4044"
   class="st3"
   id="ellipse31"
   style="fill:url(#grad0-11);stroke:none;stroke-width:0.75;stroke-linecap:butt" />
			</g>
			<g
   id="shape3984-12"
   transform="translate(31.8898)">
				<title
   id="title34">Sheet.3984</title>
				<path
   d="M 18.81,74.18 A 6.27165,5.91665 -180 0 0 12.4,78.13 6.23622,5.88323 -180 0 0 5.99,74.18 C 0.18,74.78 0,80.03 0,82.1 0,83.58 0.35,88.26 12.33,96.38 24.48,88.15 24.8,83.58 24.8,82.1 c 0,-2.07 0,-7.32 -5.99,-7.92 z"
   class="st4"
   id="path36"
   inkscape:connector-curvature="0"
   style="fill:#b31b1b;stroke:none;stroke-width:0.75;stroke-linecap:butt" />
			</g>
			<g
   id="shape3985-14"
   transform="translate(33.7677,-5.44867)">
				<title
   id="title39">Sheet.3985</title>
				<path
   d="m 22.93,86.92 h -5.67 a 0.389764,0.367702 -180 0 0 -0.389764,0.200565 L 15.09,89.89 a 0.248031,0.233992 0 0 1 -0.389764,0 L 12.3,85.18 a 0.46063,0.434557 -180 0 0 -0.850394,0 L 9.04,91.87 a 0.2125985,0.20056547 0 0 1 -0.425197,0 L 6.52,87.32 a 0.46063,0.434557 -180 0 0 -0.814961,0 L 2.94,92.07 A 0.389764,0.367702 0 0 1 2.550236,92.270565 L 0,92.27 a 16.2992,15.3766 -180 0 0 1.31,1.7 h 2.3 A 0.389764,0.367702 -180 0 0 3.999764,93.736008 L 5.95,90.39 8.57,96.11 a 0.46063,0.434557 -180 0 0 0.850394,0 L 12.15,88.49 l 2.38,4.28 a 0.496063,0.467984 -180 0 0 0.814961,0 L 17.96,88.56 a 0.531496,0.501411 0 0 1 0.389764,-0.233992 L 22.93,88.32 Z"
   class="st5"
   id="path41"
   inkscape:connector-curvature="0"
   style="fill:#f2f2f2" />
				<path
   d="m 22.93,86.92 h -5.67 a 0.389764,0.367702 -180 0 0 -0.389764,0.200565 L 15.09,89.89 a 0.248031,0.233992 0 0 1 -0.389764,0 L 12.3,85.18 a 0.46063,0.434557 -180 0 0 -0.850394,0 L 9.04,91.87 a 0.2125985,0.20056547 0 0 1 -0.425197,0 L 6.52,87.32 a 0.46063,0.434557 -180 0 0 -0.814961,0 L 2.94,92.07 A 0.389764,0.367702 0 0 1 2.550236,92.270565 L 0,92.27 a 16.2992,15.3766 -180 0 0 1.31,1.7 h 2.3 A 0.389764,0.367702 -180 0 0 3.999764,93.736008 L 5.95,90.39 8.57,96.11 a 0.46063,0.434557 -180 0 0 0.850394,0 L 12.15,88.49 l 2.38,4.28 a 0.496063,0.467984 -180 0 0 0.814961,0 L 17.96,88.56 a 0.531496,0.501411 0 0 1 0.389764,-0.233992 L 22.93,88.32"
   class="st6"
   id="path43"
   inkscape:connector-curvature="0"
   style="stroke:none;stroke-width:0.75;stroke-linecap:butt" />
			</g>
		</g>
	</g>
</svg>

<?xml version="1.0" encoding="UTF-8" standalone="no"?>
<!DOCTYPE svg PUBLIC "-//W3C//DTD SVG 1.1//EN" "http://www.w3.org/Graphics/SVG/1.1/DTD/svg11.dtd">
<!-- Generated by Microsoft Visio, SVG Export Intune Tenant Status.svg Page-1 -->
<svg xmlns="http://www.w3.org/2000/svg" xmlns:xlink="http://www.w3.org/1999/xlink" xmlns:ev="http://www.w3.org/2001/xml-events"
		width="0.944882in" height="1.33858in" viewBox="0 0 68.0315 96.378" xml:space="preserve" color-interpolation-filters="sRGB"
		class="st7">
	<style type="text/css">
	<![CDATA[
		.st1 {fill:url(#grad0-5);stroke:none;stroke-linecap:butt;stroke-width:0.75}
		.st2 {fill:#ffffff;fill-opacity:0.8;stroke:none;stroke-linecap:butt;stroke-width:0.75}
		.st3 {fill:url(#grad0-11);stroke:none;stroke-linecap:butt;stroke-width:0.75}
		.st4 {fill:#b31b1b;stroke:none;stroke-linecap:butt;stroke-width:0.75}
		.st5 {fill:#f2f2f2}
		.st6 {stroke:none;stroke-linecap:butt;stroke-width:0.75}
		.st7 {fill:none;fill-rule:evenodd;font-size:12px;overflow:visible;stroke-linecap:square;stroke-miterlimit:3}
	]]>
	</style>

	<defs id="Patterns_And_Gradients">
		<linearGradient id="grad0-5" x1="0" y1="0" x2="1" y2="0" gradientTransform="rotate(90 0.5 0.5)">
			<stop offset="0.22" stop-color="#32d4f5" stop-opacity="1"/>
			<stop offset="1" stop-color="#198ab3" stop-opacity="1"/>
		</linearGradient>
		<linearGradient id="grad0-11" x1="0" y1="0" x2="1" y2="0" gradientTransform="rotate(85.385943817791 0.5 0.5)">
			<stop offset="0.22" stop-color="#32d4f5" stop-opacity="1"/>
			<stop offset="1" stop-color="#198ab3" stop-opacity="1"/>
		</linearGradient>
	</defs>
	<g>
		<title>Page-1</title>
		<g id="group3896-1" transform="translate(5.66929,-34.0157)">
			<title>Intune Tenant Status</title>
			<g id="shape3897-2" transform="translate(0,-4.04472)">
				<title>Sheet.3897</title>
				<path d="M46.06 96.38 A4.5 4.24528 -180 0 0 50.63 92.2 A2.69291 2.54048 -180 0 0 50.63 91.7 C48.86 78.33 40.78 67.46
							 25.37 67.46 C9.96 67.46 1.56 76.59 0 91.66 A4.53543 4.27871 -180 0 0 4.04 96.34 L46.06 96.34 L46.06
							 96.38 Z" class="st1"/>
			</g>
			<g id="shape3898-6" transform="translate(17.7165,-13.2373)">
				<title>Sheet.3898</title>
				<path d="M7.62 79.73 A13.8898 13.1036 0 0 1 0 77.59 L7.55 96.38 L15.09 77.73 A14.1732 13.371 0 0 1 7.62 79.73 Z"
						class="st2"/>
			</g>
			<g id="shape3899-8" transform="translate(11.126,-29.8841)">
				<title>Sheet.3899</title>
				<ellipse cx="14.2087" cy="82.9736" rx="14.2087" ry="13.4044" class="st3"/>
			</g>
			<g id="shape3900-12" transform="translate(31.8898,1.42109E-14)">
				<title>Sheet.3900</title>
				<path d="M18.81 74.18 A6.27165 5.91665 -180 0 0 12.4 78.13 A6.23622 5.88323 -180 0 0 5.99 74.18 C0.18 74.78 0 80.03
							 0 82.1 C0 83.58 0.35 88.26 12.33 96.38 C24.48 88.15 24.8 83.58 24.8 82.1 C24.8 80.03 24.8 74.78 18.81
							 74.18 Z" class="st4"/>
			</g>
			<g id="shape3901-14" transform="translate(33.7677,-5.44867)">
				<title>Sheet.3901</title>
				<path d="M22.93 86.92 L17.26 86.92 a0.389764 0.367702 -180 0 0 -0.389764 0.200565 L15.09 89.89 a0.248031 0.233992
							 0 0 1 -0.389764 1.42109E-14 L12.3 85.18 a0.46063 0.434557 -180 0 0 -0.850394 -1.42109E-14 L9.04 91.87
							 a0.212598 0.200565 0 0 1 -0.425197 0 L6.52 87.32 a0.46063 0.434557 -180 0 0 -0.814961 0 L2.94 92.07
							 a0.389764 0.367702 0 0 1 -0.389764 0.200565 L0 92.27 A16.2992 15.3766 -180 0 0 1.31 93.97 L3.61 93.97
							 a0.389764 0.367702 -180 0 0 0.389764 -0.233992 L5.95 90.39 L8.57 96.11 a0.46063 0.434557 -180 0 0 0.850394
							 0 L12.15 88.49 L14.53 92.77 a0.496063 0.467984 -180 0 0 0.814961 0 L17.96 88.56 a0.531496 0.501411 0
							 0 1 0.389764 -0.233992 L22.93 88.32 L22.93 86.92 Z" class="st5"/>
				<path d="M22.93 86.92 L17.26 86.92 a0.389764 0.367702 -180 0 0 -0.389764 0.200565 L15.09 89.89 a0.248031 0.233992
							 0 0 1 -0.389764 1.42109E-14 L12.3 85.18 a0.46063 0.434557 -180 0 0 -0.850394 -1.42109E-14 L9.04 91.87
							 a0.212598 0.200565 0 0 1 -0.425197 0 L6.52 87.32 a0.46063 0.434557 -180 0 0 -0.814961 0 L2.94 92.07
							 a0.389764 0.367702 0 0 1 -0.389764 0.200565 L0 92.27 A16.2992 15.3766 -180 0 0 1.31 93.97 L3.61 93.97
							 a0.389764 0.367702 -180 0 0 0.389764 -0.233992 L5.95 90.39 L8.57 96.11 a0.46063 0.434557 -180 0 0 0.850394
							 0 L12.15 88.49 L14.53 92.77 a0.496063 0.467984 -180 0 0 0.814961 0 L17.96 88.56 a0.531496 0.501411 0
							 0 1 0.389764 -0.233992 L22.93 88.32" class="st6"/>
			</g>
		</g>
	</g>
</svg>
